images/flags-rounded-colourized/ls.svg

<svg xmlns="http://www.w3.org/2000/svg" viewBox="0 0 512.001 512.001"><path d="M0 311.908h512v102.988a8.829 8.829 0 01-8.828 8.828H8.828A8.829 8.829 0 010 414.896V311.908z" fill="#73af00"/><path d="M8.828 88.276h494.345a8.829 8.829 0 018.828 8.828v102.988H0V97.103a8.828 8.828 0 018.828-8.827z" fill="#41479b"/><path fill="#f5f5f5" d="M0 200.09h512V311.9H0z"/><path d="M286.477 275.913l-2.052 1.045c-.279.142-.58.265-.865.403l-18.127-22.898c3.726-8.099 5.934-19.153 5.934-24.178 0-8.257-5.418-15.136-12.547-16.591-.477-1.077-1.551-1.831-2.805-1.831s-2.328.754-2.805 1.831c-7.128 1.455-12.547 8.335-12.547 16.591 0 5.025 2.209 16.078 5.934 24.178l-18.126 22.898c-.282-.137-.583-.259-.861-.401l-2.052-1.045-7.658 15.054 2.052 1.044c10.451 5.316 22.921 8.126 36.063 8.126 13.143 0 25.617-2.812 36.07-8.127l2.052-1.044-7.66-15.055zm-18.181-45.628c0 3.735-1.387 11.586-3.957 18.783a55.305 55.305 0 01-1.042 2.699l-2.677-3.382v-11.959h4.606l-6.141-6.141v-13.363c5.288 1.54 9.211 6.938 9.211 13.363zm-20.606 18.782c-2.57-7.197-3.957-15.048-3.957-18.783 0-6.424 3.923-11.822 9.212-13.363v13.363l-6.141 6.141h4.606v11.959l-2.677 3.382a53.908 53.908 0 01-1.043-2.699zm-20.648 34.084l.627 2.579-2.251.614 1.624-3.193zm-2.679 5.869l3.851-1.05.707 2.91a65.326 65.326 0 01-4.558-1.86zm5.839-5.866a61.565 61.565 0 005.449 1.849l.554 1.698-4.849 1.196-1.154-4.743zm2.164 8.9l-.467-1.919 5.022-1.239 1.557 4.771a72.428 72.428 0 01-6.112-1.613zm6.816-6.127c1.927.449 3.889.836 5.892 1.129l.834 1.492-5.33 1.661-1.396-4.282zm2.742 8.405l-.631-1.933 5.763-1.796 2.612 4.671a81.97 81.97 0 01-7.744-.942zm6.923-6.823c2.366.224 4.759.348 7.167.348.513 0 1.023-.028 1.535-.039l.641.983-7.084 2.748-2.259-4.04zm7.167 8.024c-.913 0-1.814-.039-2.719-.067l-1.055-1.887 7.235-2.806 2.933 4.497c-2.109.156-4.236.263-6.394.263zm5.098-7.87a74.54 74.54 0 007.199-.831l.691.883-5.608 3.446-2.282-3.498zm4.748 7.28l-1.208-1.853 5.778-3.55 3.212 4.107a78.92 78.92 0 01-7.782 1.296zm5.846-8.754a67.251 67.251 0 005.878-1.536l.715.926-4.077 3.827-2.516-3.217zm5.22 6.673l-1.28-1.636 4.067-3.817 2.835 3.671c-1.833.66-3.7 1.268-5.622 1.782zm3.726-9.26a57.885 57.885 0 003.786-1.54l.6 1.181-1.962 3.5-2.424-3.141zm4.886 6.327l-.931-1.206 1.688-3.011 1.628 3.2c-.779.36-1.585.685-2.385 1.017z" fill="#464655"/></svg>

<?xml version="1.0" encoding="iso-8859-1"?>
<!-- Generator: Adobe Illustrator 19.0.0, SVG Export Plug-In . SVG Version: 6.00 Build 0)  -->
<svg xmlns="http://www.w3.org/2000/svg" xmlns:xlink="http://www.w3.org/1999/xlink" version="1.1" id="Layer_1" x="0px" y="0px" viewBox="0 0 512.001 512.001" style="enable-background:new 0 0 512.001 512.001;" xml:space="preserve">
<path style="fill:#73AF00;" d="M0,311.908h512v102.988c0,4.875-3.953,8.828-8.828,8.828H8.828c-4.875,0-8.828-3.953-8.828-8.828  V311.908z"/>
<path style="fill:#41479B;" d="M8.828,88.276h494.345c4.875,0,8.828,3.953,8.828,8.828v102.988H0V97.103  C0,92.228,3.953,88.276,8.828,88.276z"/>
<rect y="200.09" style="fill:#F5F5F5;" width="512" height="111.81"/>
<path style="fill:#464655;" d="M286.477,275.913l-2.052,1.045c-0.279,0.142-0.58,0.265-0.865,0.403l-18.127-22.898  c3.726-8.099,5.934-19.153,5.934-24.178c0-8.257-5.418-15.136-12.547-16.591c-0.477-1.077-1.551-1.831-2.805-1.831  s-2.328,0.754-2.805,1.831c-7.128,1.455-12.547,8.335-12.547,16.591c0,5.025,2.209,16.078,5.934,24.178l-18.126,22.898  c-0.282-0.137-0.583-0.259-0.861-0.401l-2.052-1.045l-7.658,15.054l2.052,1.044c10.451,5.316,22.921,8.126,36.063,8.126  c13.143,0,25.617-2.812,36.07-8.127l2.052-1.044L286.477,275.913z M268.296,230.285c0,3.735-1.387,11.586-3.957,18.783  c-0.339,0.948-0.686,1.847-1.042,2.699l-2.677-3.382v-11.959h4.606l-6.141-6.141v-13.363  C264.373,218.462,268.296,223.86,268.296,230.285z M247.69,249.067c-2.57-7.197-3.957-15.048-3.957-18.783  c0-6.424,3.923-11.822,9.212-13.363v13.363l-6.141,6.141h4.606v11.959l-2.677,3.382C248.376,250.915,248.029,250.015,247.69,249.067  z M227.042,283.151l0.627,2.579l-2.251,0.614L227.042,283.151z M224.363,289.02l3.851-1.05l0.707,2.91  C227.368,290.306,225.841,289.697,224.363,289.02z M230.202,283.154c1.752,0.693,3.575,1.304,5.449,1.849l0.554,1.698l-4.849,1.196  L230.202,283.154z M232.366,292.054l-0.467-1.919l5.022-1.239l1.557,4.771C236.395,293.214,234.357,292.673,232.366,292.054z   M239.182,285.927c1.927,0.449,3.889,0.836,5.892,1.129l0.834,1.492l-5.33,1.661L239.182,285.927z M241.924,294.332l-0.631-1.933  l5.763-1.796l2.612,4.671C247.041,295.078,244.457,294.766,241.924,294.332z M248.847,287.509c2.366,0.224,4.759,0.348,7.167,0.348  c0.513,0,1.023-0.028,1.535-0.039l0.641,0.983l-7.084,2.748L248.847,287.509z M256.014,295.533c-0.913,0-1.814-0.039-2.719-0.067  l-1.055-1.887l7.235-2.806l2.933,4.497C260.299,295.426,258.172,295.533,256.014,295.533z M261.112,287.663  c2.434-0.163,4.839-0.44,7.199-0.831l0.691,0.883l-5.608,3.446L261.112,287.663z M265.86,294.943l-1.208-1.853l5.778-3.55  l3.212,4.107C271.106,294.204,268.508,294.634,265.86,294.943z M271.706,286.189c2.008-0.433,3.974-0.941,5.878-1.536l0.715,0.926  l-4.077,3.827L271.706,286.189z M276.926,292.862l-1.28-1.636l4.067-3.817l2.835,3.671  C280.715,291.74,278.848,292.348,276.926,292.862z M280.652,283.602c1.293-0.48,2.564-0.985,3.786-1.54l0.6,1.181l-1.962,3.5  L280.652,283.602z M285.538,289.929l-0.931-1.206l1.688-3.011l1.628,3.2C287.144,289.272,286.338,289.597,285.538,289.929z"/>
<g>
</g>
<g>
</g>
<g>
</g>
<g>
</g>
<g>
</g>
<g>
</g>
<g>
</g>
<g>
</g>
<g>
</g>
<g>
</g>
<g>
</g>
<g>
</g>
<g>
</g>
<g>
</g>
<g>
</g>
</svg>
